X:44
T:Polska ur Petter Dufvas notbok (Ma6-44)
R:Polska
O:Verkelbäck, Småland
B:Petter Dufvas notbok
S:Petter Dufva
N:Smus Ma6 bild 46
M:3/4
L:1/8
K:D
dA FA df|fe/d/ e2 A2|ec Ac eg|gf/e/ f2 d2:|
|:gf/g/ bg e2|gf/g/ ac d2|gf/g/ bB cd|ed/c/ d2 D2:|

